!!!SOCIAL_FUNCTION:	cochiti
!!!PDT:	1957
!!!OTL: No_61_Buffalo_Dance_Song_(b).krn
!!!LING_GROUP: Keresan
!!!LANG: Tone
!!!REG: Southwest
**kern
*staff1
=1-
*clefF4
*k[f#c#g#]
*M2/4
4r
8.r
16d#\
=2!|:
4d\
8d\L
8c#\J
=3
*M3/4
4B\
8.B\L
16B\Jk
8d#\L
8c#\J
=4
[2.d#\
=5
*M2/4
4d#\]
8d#\
16r
16e\
=6
4d#\
8d#\L
8c#\J
=7
4B\
8.B\L
16B\Jk
=8
*M3/4
8c#;\L
8B;\J
16A\LK
[8.A\J
4A\]
=9
[2.A\
=10
4A\]
4A\
8.r
16B\
=11
*M2/4
4A\
8A\L
8F#\J
=12
*M3/4
8F#\L
[8E\J
8E\L]
8E\J
8G#\L
8F#\J
=13
[2.A\
=14
*M2/4
4A\]
8A\
16r
16B\
=15
4A\
8A\L
8F#\J
=16
8F#\L
[8E\J
4E\]
=17
4A\
8A\L
8F#\J
=18
8F#\L
8E\J
8D\L
8F#\J
=19
4E\
4E\
=20
*M3/4
4E\
4E\
4r
=21
*M2/4
16F#\LK
8.E\J
16F#\LK
8.E\J
=22
16E\LK
[8.E\J
4E\]
=23
4E\
4E\
=24
[2E\
=25
2E\]
=26
4E\
8E\L
8E\J
=27
2r
=28
4E\
4E\
=29
[2E\
=30
2E\]
=31
=
4E\
4r
=32:|!
4E\
8.r
16d\
=33
8.B\L
16B\Jk
4B\
=34
8e\L
16e\L
16c#\JJ
4B\
=35
8d\L
8B\J
16A\LK
8.A\J
=36
*M3/4
2A\
8A\
16r
16B\
=37
*M2/4
4A\
8A\L
8F#\J
=38
*M3/4
8F#\L
[8E\J
8E\L]
8E\J
8G#\L
8F#\J
=39
*M2/4
[2A\
=40
*M3/4
2A\]
8A\
16r
16B\
=41
*M2/4
4A\
8A\L
8F#\J
=42
*M3/4
8F#\L
[8E\J
2E\]
=43
*M2/4
4A\
8A\L
8F#\J
=44
8F#\L
8E\J
8D\L
8F#\J
=45
4E\
4E\
=46
*M3/4
4E\
4E\
4r
=47
*M2/4
16F#\LK
8.E\J
16F#\LK
8.E\J
=48
16E\LK
8.E\J
4E\
=49
4E\
4E\
=50
[2E\
=51
2E\]
=52
4E\
4E\
=53
4E\
4r
==
*-
